public/icons/group.svg

<?xml version="1.0" encoding="UTF-8"?>
<svg id="Layer_1" data-name="Layer 1" xmlns="http://www.w3.org/2000/svg" viewBox="0 0 510.93 509.38">
  <defs>
    <style>
      .cls-1 {
        fill: #fff;
      }

      .cls-1, .cls-2 {
        stroke-width: 0px;
      }

      .cls-2 {
        fill: #1f00ff;
      }
    </style>
  </defs>
  <rect class="cls-2" width="512.85" height="509.38"/>
  <g>
    <path class="cls-1" d="M255.49,388.34c-57.28,0-103.88-49.02-103.88-109.27v-48.22h48.01v48.22c0,33.78,25.06,61.25,55.87,61.25s55.87-27.48,55.87-61.25v-48.07h48.01v48.07c0,60.25-46.6,109.27-103.88,109.27Z"/>
    <circle class="cls-1" cx="175.62" cy="179.08" r="26.2"/>
    <rect class="cls-1" x="285.37" y="155.21" width="100.22" height="47.74"/>
  </g>
</svg>

<svg width="511" height="510" viewBox="0 0 511 510" fill="none" xmlns="http://www.w3.org/2000/svg">
<path d="M340.76 176.13L339.98 176.91C339.8 177.07 339.68 177.27 339.6 177.5C339.49 177.72 339.43 177.95 339.44 178.2C339.44 178.45 339.48 178.68 339.6 178.9C339.67 179.13 339.8 179.32 339.98 179.49L340.35 179.77C340.63 179.93 340.94 180.02 341.27 180.02L341.75 179.95C342.06 179.86 342.33 179.71 342.55 179.48L343.33 178.7C343.51 178.54 343.63 178.34 343.71 178.11C343.82 177.89 343.88 177.66 343.87 177.41C343.87 177.16 343.83 176.93 343.71 176.71C343.64 176.48 343.51 176.29 343.33 176.12L342.96 175.84C342.68 175.68 342.37 175.59 342.04 175.59L341.56 175.66C341.25 175.75 340.98 175.9 340.76 176.13Z" fill="#1A1A1A"/>
<path d="M255.49 388.34C198.21 388.34 151.61 339.32 151.61 279.07V230.85H199.62V279.07C199.62 312.85 224.68 340.32 255.49 340.32C286.3 340.32 311.36 312.84 311.36 279.07V231H359.37V279.07C359.37 339.32 312.77 388.34 255.49 388.34Z" fill="#1F00FF"/>
<path d="M175.62 205.28C190.09 205.28 201.82 193.55 201.82 179.08C201.82 164.61 190.09 152.88 175.62 152.88C161.15 152.88 149.42 164.61 149.42 179.08C149.42 193.55 161.15 205.28 175.62 205.28Z" fill="#1F00FF"/>
<path d="M385.59 155.21H285.37V202.95H385.59V155.21Z" fill="#1F00FF"/>
</svg>
